X: 100286
T: THE THISTLE HORNPIPE
R: hornpipe
B: K\"ohler's Violin Repository, v.3, 1885 p.212 #1
F: http://www.archive.org/details/klersviolinrepos03rugg
Z: 2012 John Chambers <jc:trillian.mit.edu>
M: C|
L: 1/8
K: Bb
uF2 |\
(B>A)B>d (c>e)c>A | (3BAB (d>B) G2F2 | (B>A)B>d (g>f)d>B | (c>=B)c>d (.c2.F2) |
(B>A)B>d (c>e)c>A | (3BAB (d>B) G2(F>E) | (3DFB (3dcB (3Agf (3edc | B2b2 B2 :|
|: uf2 |\
(g>f)g>a (.b2.b2) | (3BAB (d>B) G2F2 | (B>A)B>d (g>f)d>B | (c>=B)c>d (.c2.f2) |
(g>f)g>a (.b2.b2) | (3BAB (d>B) G2(F>E) | (3DFB (3dcB (3Agf (3edc | B2b2 B2 :|

%%sep 2 1 500

